X:62
T:CAHAWK- Ca' Hawkie through the watter.
Q:180
L:1/8
M:2/4
K:Em
d B B G|A B c2|d B B G|A F F D|d B B TG|A B c c|\
Be e ^d| e E E E||
"Chorus"G2 G B|A2 A c|G2 G B|A/G/ F/E/ D F|G G G B|\
A2 c c|B e e ^d|e E E E|]

